frontend/src/assets/figma/downloaded/hero-cover-band.svg

<svg preserveAspectRatio="none" width="100%" height="100%" overflow="visible" style="display: block;" viewBox="0 0 41.1042 20.0369" fill="none" xmlns="http://www.w3.org/2000/svg">
<g id="cover band">
<path id="Vector" d="M30.5132 20.0369C29.4012 20.0369 28.4537 19.6498 27.6708 18.8757C26.8879 18.1016 26.4965 17.1648 26.4965 16.0653C26.4965 14.9707 26.8879 14.0364 27.6708 13.2623C28.4587 12.4833 29.4062 12.0937 30.5132 12.0937C31.5504 12.0937 32.4555 12.4389 33.2284 13.1292V9.17238H34.5374V20.0369H33.2284V19.0015C32.4555 19.6917 31.5504 20.0369 30.5132 20.0369ZM30.5132 18.75C30.8822 18.75 31.2313 18.681 31.5604 18.5429C31.8895 18.3999 32.1762 18.2076 32.4206 17.966C32.6699 17.7195 32.8669 17.4335 33.0115 17.1081C33.1561 16.7827 33.2284 16.4351 33.2284 16.0653C33.2284 15.7004 33.1561 15.3553 33.0115 15.0299C32.8669 14.7045 32.6699 14.421 32.4206 14.1794C32.1762 13.9328 31.8895 13.7405 31.5604 13.6025C31.2313 13.4595 30.8822 13.388 30.5132 13.388C30.1392 13.388 29.7876 13.4595 29.4585 13.6025C29.1344 13.7405 28.8477 13.9328 28.5983 14.1794C28.354 14.421 28.1595 14.7045 28.0149 15.0299C27.8753 15.3553 27.8054 15.7004 27.8054 16.0653C27.8054 16.4351 27.8753 16.7827 28.0149 17.1081C28.1595 17.4335 28.354 17.7195 28.5983 17.966C28.8477 18.2076 29.1344 18.3999 29.4585 18.5429C29.7876 18.681 30.1392 18.75 30.5132 18.75Z" fill="var(--fill-0, white)"/>
<path id="Vector_2" d="M19.1704 20.0358V12.0927H20.4794V12.6622C21.008 12.2825 21.6039 12.0927 22.2671 12.0927C22.676 12.0927 23.0624 12.1691 23.4265 12.322C23.7905 12.4748 24.1096 12.6844 24.3839 12.9506C24.6632 13.2169 24.8876 13.5275 25.0571 13.8825C25.2266 14.2326 25.3214 14.6073 25.3413 15.0067L25.3339 20.0358H24.0249V15.0067C24.0099 14.7848 23.9526 14.5752 23.8528 14.378C23.7531 14.1808 23.6234 14.0082 23.4639 13.8603C23.3093 13.7124 23.1273 13.5965 22.9178 13.5127C22.7134 13.4289 22.4965 13.387 22.2671 13.387C22.0327 13.387 21.8108 13.4313 21.6014 13.5201C21.3969 13.6039 21.2149 13.7198 21.0553 13.8677C20.8958 14.0107 20.7661 14.1808 20.6664 14.378C20.5716 14.5752 20.5168 14.7848 20.5018 15.0067H20.4794V20.0358H19.1704Z" fill="var(--fill-0, white)"/>
<path id="Vector_3" d="M13.7301 20.0358C12.6181 20.0358 11.6706 19.6488 10.8877 18.8747C10.1048 18.1006 9.71337 17.1638 9.71337 16.0643C9.71337 14.9697 10.1048 14.0353 10.8877 13.2612C11.6756 12.4822 12.6231 12.0927 13.7301 12.0927C14.7673 12.0927 15.6724 12.4378 16.4453 13.1281V12.0927H17.7543V20.0358H16.4453V19.0004C15.6724 19.6907 14.7673 20.0358 13.7301 20.0358ZM13.7301 18.749C14.0991 18.749 14.4482 18.6799 14.7773 18.5419C15.1064 18.3989 15.3931 18.2066 15.6375 17.965C15.8868 17.7185 16.0838 17.4325 16.2284 17.1071C16.373 16.7817 16.4453 16.4341 16.4453 16.0643C16.4453 15.6994 16.373 15.3543 16.2284 15.0289C16.0838 14.7034 15.8868 14.4199 15.6375 14.1783C15.3931 13.9318 15.1064 13.7395 14.7773 13.6015C14.4482 13.4585 14.0991 13.387 13.7301 13.387C13.3561 13.387 13.0045 13.4585 12.6754 13.6015C12.3513 13.7395 12.0646 13.9318 11.8152 14.1783C11.5709 14.4199 11.3764 14.7034 11.2318 15.0289C11.0922 15.3543 11.0224 15.6994 11.0224 16.0643C11.0224 16.4341 11.0922 16.7817 11.2318 17.1071C11.3764 17.4325 11.5709 17.7185 11.8152 17.965C12.0646 18.2066 12.3513 18.3989 12.6754 18.5419C13.0045 18.6799 13.3561 18.749 13.7301 18.749Z" fill="var(--fill-0, white)"/>
<path id="Vector_4" d="M4.84082 20.0369C3.79363 20.0369 2.89105 19.6917 2.13308 19.0015V20.0369H0.824085V9.17238H2.13308V13.1292C2.89105 12.4389 3.79363 12.0937 4.84082 12.0937C5.38935 12.0937 5.90547 12.1997 6.38917 12.4118C6.87786 12.6188 7.30422 12.9048 7.66824 13.2697C8.03725 13.6296 8.32897 14.0512 8.54339 14.5344C8.75782 15.0126 8.86503 15.5229 8.86503 16.0653C8.86503 16.6126 8.75782 17.1278 8.54339 17.611C8.33396 18.0893 8.04473 18.5084 7.67572 18.8683C7.3117 19.2283 6.88534 19.5142 6.39665 19.7263C5.90796 19.9333 5.38935 20.0369 4.84082 20.0369ZM4.84082 18.75C5.20983 18.75 5.55889 18.681 5.88801 18.5429C6.21713 18.3999 6.50386 18.2076 6.74821 17.966C6.99754 17.7195 7.19451 17.4335 7.33912 17.1081C7.48373 16.7827 7.55604 16.4351 7.55604 16.0653C7.55604 15.7004 7.48373 15.3553 7.33912 15.0299C7.19451 14.7045 6.99754 14.421 6.74821 14.1794C6.50386 13.9328 6.21713 13.7405 5.88801 13.6025C5.55889 13.4595 5.20983 13.388 4.84082 13.388C4.46682 13.388 4.11526 13.4595 3.78615 13.6025C3.46201 13.7405 3.17528 13.9328 2.92595 14.1794C2.68161 14.421 2.48713 14.7045 2.34252 15.0299C2.20289 15.3553 2.13308 15.7004 2.13308 16.0653C2.13308 16.4351 2.20289 16.7827 2.34252 17.1081C2.48713 17.4335 2.68161 17.7195 2.92595 17.966C3.17528 18.2076 3.46201 18.3999 3.78615 18.5429C4.11526 18.681 4.46682 18.75 4.84082 18.75Z" fill="var(--fill-0, white)"/>
<g id="Group 12066">
<path id="Vector_5" d="M40.1542 1.75282C39.8151 1.44712 39.4187 1.29427 38.9649 1.29427C38.7305 1.29427 38.5086 1.33865 38.2992 1.4274C38.0947 1.51122 37.9127 1.62709 37.7532 1.775C37.5936 1.91799 37.4639 2.08809 37.3642 2.28532C37.2695 2.48254 37.2146 2.69209 37.1996 2.91396L37.1772 7.94314H35.8682V0H37.1772V0.56948C37.7058 0.189827 38.3017 0 38.9649 0C39.7927 0 40.5008 0.283507 41.0892 0.850522C41.0942 0.855453 41.0992 0.857918 41.1042 0.857918L40.1542 1.75282Z" fill="var(--fill-0, white)"/>
<path id="Vector_6" d="M29.9924 7.94314C28.8804 7.94314 27.9329 7.55609 27.15 6.78199C26.3671 6.00789 25.9757 5.07108 25.9757 3.97157C25.9757 2.87698 26.3671 1.94264 27.15 1.16854C27.9379 0.389514 28.8854 0 29.9924 0C30.5409 0 31.0571 0.106007 31.5408 0.318021C32.0295 0.525105 32.4558 0.811078 32.8198 1.17594C33.1888 1.53587 33.4806 1.95743 33.695 2.44063C33.9094 2.91889 34.0166 3.42921 34.0166 3.97157C34.0166 4.07511 34.0116 4.18112 34.0017 4.28959C33.9917 4.39806 33.9767 4.509 33.9568 4.6224H27.3595C27.4343 4.91331 27.5515 5.18202 27.711 5.42855C27.8756 5.67508 28.0726 5.88956 28.3019 6.07199C28.5363 6.25442 28.7956 6.39741 29.0799 6.50095C29.3691 6.60449 29.6733 6.65626 29.9924 6.65626C30.2467 6.65626 30.4911 6.62175 30.7254 6.55272C30.9648 6.48369 31.1867 6.38754 31.3912 6.26428C31.5956 6.14102 31.7801 5.99556 31.9447 5.82793C32.1142 5.65536 32.2563 5.46799 32.371 5.26584H33.7997C33.6651 5.65043 33.4731 6.00789 33.2238 6.33824C32.9744 6.66366 32.6827 6.94716 32.3486 7.18876C32.0195 7.42543 31.653 7.61032 31.249 7.74345C30.8501 7.87657 30.4312 7.94314 29.9924 7.94314ZM27.3595 3.32813H32.6254C32.5506 3.04216 32.4284 2.77591 32.2588 2.52938C32.0943 2.27792 31.8948 2.06098 31.6604 1.87854C31.4311 1.69611 31.1742 1.55313 30.89 1.44959C30.6058 1.34604 30.3066 1.29427 29.9924 1.29427C29.6783 1.29427 29.3766 1.34604 29.0873 1.44959C28.8031 1.55313 28.5438 1.69611 28.3094 1.87854C28.08 2.05604 27.8831 2.27052 27.7185 2.52198C27.5539 2.76851 27.4343 3.03723 27.3595 3.32813Z" fill="var(--fill-0, white)"/>
<path id="Vector_7" d="M20.5769 7.94314L18.1908 0H19.5521L21.5119 6.52313L23.4791 0H24.8404L22.4543 7.94314H20.5769Z" fill="var(--fill-0, white)"/>
<path id="Vector_8" d="M13.0538 7.94314C11.9418 7.94314 10.9943 7.55609 10.2114 6.78199C9.4285 6.00789 9.03705 5.07108 9.03705 3.97157C9.03705 2.87698 9.4285 1.94264 10.2114 1.16854C10.9993 0.389514 11.9467 0 13.0538 0C13.6023 0 14.1184 0.106007 14.6021 0.318021C15.0908 0.525105 15.5172 0.811078 15.8812 1.17594C16.2502 1.53587 16.5419 1.95743 16.7564 2.44063C16.9708 2.91889 17.078 3.42921 17.078 3.97157C17.078 4.51886 16.9708 5.0341 16.7564 5.5173C16.5469 5.99556 16.2577 6.41466 15.8887 6.77459C15.5247 7.13452 15.0983 7.4205 14.6096 7.63251C14.1209 7.83959 13.6023 7.94314 13.0538 7.94314ZM13.0538 6.65626C13.4228 6.65626 13.7719 6.58723 14.101 6.44918C14.4301 6.30619 14.7168 6.1139 14.9612 5.8723C15.2105 5.62577 15.4075 5.3398 15.5521 5.01438C15.6967 4.68897 15.769 4.34136 15.769 3.97157C15.769 3.60671 15.6967 3.26157 15.5521 2.93615C15.4075 2.61073 15.2105 2.32723 14.9612 2.08563C14.7168 1.8391 14.4301 1.64681 14.101 1.50875C13.7719 1.36577 13.4228 1.29427 13.0538 1.29427C12.6798 1.29427 12.3282 1.36577 11.9991 1.50875C11.675 1.64681 11.3882 1.8391 11.1389 2.08563C10.8946 2.32723 10.7001 2.61073 10.5555 2.93615C10.4159 3.26157 10.346 3.60671 10.346 3.97157C10.346 4.34136 10.4159 4.68897 10.5555 5.01438C10.7001 5.3398 10.8946 5.62577 11.1389 5.8723C11.3882 6.1139 11.675 6.30619 11.9991 6.44918C12.3282 6.58723 12.6798 6.65626 13.0538 6.65626Z" fill="var(--fill-0, white)"/>
<path id="Vector_9" d="M4.01673 7.94314C2.90471 7.94314 1.95725 7.55609 1.17435 6.78199C0.391451 6.00789 0 5.07108 0 3.97157C0 2.87698 0.391451 1.94264 1.17435 1.16854C1.96224 0.389514 2.9097 0 4.01673 0C4.45556 0 4.87443 0.0690279 5.27336 0.207084C5.67728 0.340209 6.0438 0.525105 6.37292 0.761772C6.70702 0.998439 6.99874 1.28195 7.24807 1.61229C7.4974 1.93771 7.68939 2.29271 7.82403 2.6773H6.39536C6.28066 2.48007 6.13855 2.29764 5.969 2.13C5.80444 1.95743 5.61994 1.80952 5.41548 1.68625C5.21103 1.56299 4.98913 1.46684 4.74977 1.39781C4.5154 1.32879 4.27105 1.29427 4.01673 1.29427C3.64274 1.29427 3.29118 1.36577 2.96206 1.50875C2.63793 1.64681 2.3512 1.8391 2.10187 2.08563C1.85752 2.32723 1.66304 2.61073 1.51843 2.93615C1.3788 3.26157 1.30899 3.60671 1.30899 3.97157C1.30899 4.34136 1.3788 4.68897 1.51843 5.01438C1.66304 5.3398 1.85752 5.62577 2.10187 5.8723C2.3512 6.1139 2.63793 6.30619 2.96206 6.44918C3.29118 6.58723 3.64274 6.65626 4.01673 6.65626C4.27105 6.65626 4.5154 6.62175 4.74977 6.55272C4.98913 6.48369 5.21103 6.38754 5.41548 6.26428C5.61994 6.14102 5.80444 5.99556 5.969 5.82793C6.13855 5.65536 6.28066 5.46799 6.39536 5.26584H7.82403C7.68939 5.65043 7.4974 6.00789 7.24807 6.33824C6.99874 6.66366 6.70702 6.94716 6.37292 7.18876C6.0438 7.42543 5.67728 7.61032 5.27336 7.74345C4.87443 7.87657 4.45556 7.94314 4.01673 7.94314Z" fill="var(--fill-0, white)"/>
</g>
</g>
</svg>

<svg xmlns="http://www.w3.org/2000/svg" fill="none" overflow="visible" preserveAspectRatio="none" style="display:block" viewBox="0 0 41.104 20.037"><path fill="var(--fill-0, white)" d="M30.513 20.037q-1.668 0-2.842-1.161t-1.174-2.81q-.001-1.643 1.174-2.804a3.9 3.9 0 0 1 2.842-1.168q1.555 0 2.715 1.035V9.172h1.31v10.865h-1.31v-1.035a3.95 3.95 0 0 1-2.715 1.035m0-1.287a2.68 2.68 0 0 0 1.908-.784q.374-.37.59-.858.217-.488.217-1.043 0-.547-.217-1.035a2.7 2.7 0 0 0-.59-.85 2.6 2.6 0 0 0-.86-.578 2.6 2.6 0 0 0-1.048-.214q-.56 0-1.055.214a2.74 2.74 0 0 0-1.443 1.428q-.21.487-.21 1.035 0 .555.21 1.043.217.488.583.858.375.363.86.577.495.207 1.055.207M19.17 20.036v-7.943h1.31v.57a3 3 0 0 1 1.787-.57q.613 0 1.16.229t.957.629q.42.399.673.931.255.525.284 1.125l-.007 5.029h-1.31v-5.03a1.6 1.6 0 0 0-.171-.628 1.82 1.82 0 0 0-.935-.865 1.7 1.7 0 0 0-.65-.126q-.352 0-.667.133-.306.126-.546.348-.24.215-.389.51-.142.296-.164.629h-.023v5.029zm-5.44 0q-1.668 0-2.842-1.161t-1.175-2.81q0-1.643 1.175-2.804a3.9 3.9 0 0 1 2.842-1.168q1.555 0 2.715 1.035v-1.035h1.31v7.943h-1.31V19a3.95 3.95 0 0 1-2.715 1.036m0-1.287a2.68 2.68 0 0 0 1.907-.784q.375-.37.591-.858.217-.488.217-1.043 0-.547-.217-1.035a2.7 2.7 0 0 0-.59-.85 2.6 2.6 0 0 0-.86-.578 2.6 2.6 0 0 0-1.048-.214q-.561 0-1.055.214a2.74 2.74 0 0 0-1.443 1.428q-.21.488-.21 1.035 0 .555.21 1.043.217.488.583.858.374.363.86.577a2.7 2.7 0 0 0 1.055.207m-8.89 1.288q-1.57 0-2.707-1.035v1.035H.824V9.172h1.31v3.957q1.136-1.035 2.707-1.035.822 0 1.548.318a4 4 0 0 1 1.28.858q.552.54.874 1.264.322.718.322 1.531 0 .822-.322 1.546-.313.717-.867 1.257-.546.54-1.28.858a3.95 3.95 0 0 1-1.555.31m0-1.287a2.68 2.68 0 0 0 1.908-.784q.375-.37.591-.858.217-.488.217-1.043 0-.547-.217-1.035a2.7 2.7 0 0 0-.59-.85 2.6 2.6 0 0 0-.861-.578 2.6 2.6 0 0 0-1.047-.214q-.561 0-1.055.214a2.74 2.74 0 0 0-1.443 1.428q-.21.487-.21 1.035 0 .555.21 1.043.217.488.583.858.374.363.86.577.494.207 1.055.207M40.154 1.753a1.72 1.72 0 0 0-1.19-.459q-.35 0-.665.133a1.8 1.8 0 0 0-.546.348 1.7 1.7 0 0 0-.389.51q-.142.297-.164.629l-.023 5.03h-1.309V0h1.31v.57A3 3 0 0 1 38.964 0q1.242 0 2.124.85.008.008.015.008zm-10.162 6.19q-1.669 0-2.842-1.161-1.174-1.16-1.174-2.81 0-1.643 1.174-2.803A3.9 3.9 0 0 1 29.992 0q.823 0 1.549.318a4 4 0 0 1 1.279.858q.553.54.875 1.265a3.7 3.7 0 0 1 .262 2.181H27.36q.112.437.351.807.248.369.59.643.353.273.779.429a2.7 2.7 0 0 0 1.645.052 2.77 2.77 0 0 0 1.646-1.287H33.8a4 4 0 0 1-.576 1.072 4.03 4.03 0 0 1-1.975 1.405q-.598.2-1.257.2M27.36 3.328h5.266a2.5 2.5 0 0 0-.366-.799 2.7 2.7 0 0 0-.599-.65 2.7 2.7 0 0 0-.77-.43 2.6 2.6 0 0 0-.898-.155q-.47 0-.905.156a2.8 2.8 0 0 0-.778.429 2.6 2.6 0 0 0-.59.643 2.6 2.6 0 0 0-.36.806m-6.783 4.615L18.19 0h1.361l1.96 6.523L23.479 0h1.361l-2.386 7.943zm-7.523 0q-1.668 0-2.843-1.161-1.174-1.16-1.174-2.81 0-1.643 1.174-2.803A3.9 3.9 0 0 1 13.054 0q.822 0 1.548.318.733.31 1.28.858.552.54.874 1.265a3.7 3.7 0 0 1 .322 1.53q0 .822-.322 1.546-.314.718-.867 1.258-.545.54-1.28.858a3.95 3.95 0 0 1-1.555.31m0-1.287a2.68 2.68 0 0 0 1.907-.784q.375-.369.591-.858.217-.488.217-1.042 0-.547-.217-1.036a2.7 2.7 0 0 0-.59-.85 2.6 2.6 0 0 0-.861-.577 2.6 2.6 0 0 0-1.047-.215q-.561 0-1.055.215a2.74 2.74 0 0 0-1.444 1.427q-.21.488-.209 1.036 0 .555.21 1.042.216.489.583.858.374.363.86.577.494.207 1.055.207M4.017 7.943q-1.668 0-2.843-1.161Q0 5.622 0 3.972q0-1.643 1.174-2.803A3.9 3.9 0 0 1 4.017 0q.658 0 1.256.207a4.03 4.03 0 0 1 1.975 1.405q.374.488.576 1.065H6.395a2.6 2.6 0 0 0-.426-.547 2.7 2.7 0 0 0-.554-.444 2.77 2.77 0 0 0-1.398-.392q-.561 0-1.055.215a2.74 2.74 0 0 0-1.444 1.427q-.21.488-.209 1.036 0 .555.21 1.042.216.489.583.858.375.363.86.577.494.207 1.055.207.38 0 .733-.103a2.77 2.77 0 0 0 1.645-1.287h1.429a4 4 0 0 1-.576 1.072q-.375.49-.875.85-.494.356-1.1.555-.598.2-1.256.2"/></svg>
